pix_core/f/image.svg

<svg fill="none" preserveAspectRatio="xMinYMid meet" viewBox="0 0 24 24" xmlns="http://www.w3.org/2000/svg"><g clip-rule="evenodd" fill="#fff" fill-rule="evenodd"><path d="m9.21436 13.5c0-.8284.67157-1.5 1.50004-1.5.8284 0 1.5.6716 1.5 1.5s-.6716 1.5-1.5 1.5c-.82847 0-1.50004-.6716-1.50004-1.5zm1.50004-.5c-.2762 0-.5.2239-.5.5s.2238.5.5.5c.2761 0 .5-.2239.5-.5s-.2239-.5-.5-.5z"/><path d="m16.5 15.5382v-3.0382c0-1.1046-.8954-2-2-2h-5c-1.10457 0-2 .8954-2 2v4c0 1.1046.89543 2 2 2h5c1.1046 0 2-.8954 2-2v-.8131c.0074-.0493.0074-.0994 0-.1487zm-1.947-.671c-.2059-.206-.5436-.193-.7332.0281l-1.4124 1.6479c-.5895.6878-1.6536.6878-2.2431 0-.18084-.211-.50307-.2234-.6996-.0269l-.68125.6812c.18166.1866.43557.3025.71655.3025h5c.5523 0 1-.4477 1-1v-.6859zm.947-.4673-.2399-.2398c-.6178-.6179-1.6309-.579-2.1995.0844l-1.4125 1.6479c-.1904.2222-.5341.2222-.7245 0-.56-.6533-1.55756-.6916-2.16599-.0832l-.25761.2576v-3.5668c0-.5523.44772-1 1-1h5c.5523 0 1 .4477 1 1z"/><path d="m19.5 8.82843v10.17157c0 1.3807-1.1193 2.5-2.5 2.5h-10c-1.38071 0-2.5-1.1193-2.5-2.5v-14c0-1.38071 1.11929-2.5 2.5-2.5h6.1716c.663 0 1.2989.26339 1.7677.73223l3.8285 3.82843c.4688.46884.7322 1.10473.7322 1.76777zm-14-3.82843c0-.82843.67157-1.5 1.5-1.5h6c.2761 0 .5.22386.5.5v3c0 .82843.6716 1.5 1.5 1.5h3c.2761 0 .5.22386.5.5v10c0 .8284-.6716 1.5-1.5 1.5h-10c-.82843 0-1.5-.6716-1.5-1.5zm9 2v-2.79289l3.2929 3.29289h-2.7929c-.2761 0-.5-.22386-.5-.5z"/></g></svg>

<svg viewBox="0 0 24 24" fill="none" xmlns="http://www.w3.org/2000/svg" preserveAspectRatio="xMinYMid meet">
<path fill-rule="evenodd" clip-rule="evenodd" d="M9.21436 13.5C9.21436 12.6716 9.88593 12 10.7144 12C11.5428 12 12.2144 12.6716 12.2144 13.5C12.2144 14.3284 11.5428 15 10.7144 15C9.88593 15 9.21436 14.3284 9.21436 13.5ZM10.7144 13C10.4382 13 10.2144 13.2239 10.2144 13.5C10.2144 13.7761 10.4382 14 10.7144 14C10.9905 14 11.2144 13.7761 11.2144 13.5C11.2144 13.2239 10.9905 13 10.7144 13Z" fill="#fff"/>
<path fill-rule="evenodd" clip-rule="evenodd" d="M16.5 15.5382V12.5C16.5 11.3954 15.6046 10.5 14.5 10.5H9.5C8.39543 10.5 7.5 11.3954 7.5 12.5V16.5C7.5 17.6046 8.39543 18.5 9.5 18.5H14.5C15.6046 18.5 16.5 17.6046 16.5 16.5V15.6869C16.5074 15.6376 16.5074 15.5875 16.5 15.5382ZM14.553 14.8672C14.3471 14.6612 14.0094 14.6742 13.8198 14.8953L12.4074 16.5432C11.8179 17.231 10.7538 17.231 10.1643 16.5432C9.98346 16.3322 9.66123 16.3198 9.4647 16.5163L8.78345 17.1975C8.96511 17.3841 9.21902 17.5 9.5 17.5H14.5C15.0523 17.5 15.5 17.0523 15.5 16.5V15.8141L14.553 14.8672ZM15.5 14.3999L15.2601 14.1601C14.6423 13.5422 13.6292 13.5811 13.0606 14.2445L11.6481 15.8924C11.4577 16.1146 11.114 16.1146 10.9236 15.8924C10.3636 15.2391 9.36604 15.2008 8.75761 15.8092L8.5 16.0668V12.5C8.5 11.9477 8.94772 11.5 9.5 11.5H14.5C15.0523 11.5 15.5 11.9477 15.5 12.5V14.3999Z" fill="#fff"/>
<path fill-rule="evenodd" clip-rule="evenodd" d="M19.5 8.82843V19C19.5 20.3807 18.3807 21.5 17 21.5H7C5.61929 21.5 4.5 20.3807 4.5 19V5C4.5 3.61929 5.61929 2.5 7 2.5H13.1716C13.8346 2.5 14.4705 2.76339 14.9393 3.23223L18.7678 7.06066C19.2366 7.5295 19.5 8.16539 19.5 8.82843ZM5.5 5C5.5 4.17157 6.17157 3.5 7 3.5H13C13.2761 3.5 13.5 3.72386 13.5 4V7C13.5 7.82843 14.1716 8.5 15 8.5H18C18.2761 8.5 18.5 8.72386 18.5 9V19C18.5 19.8284 17.8284 20.5 17 20.5H7C6.17157 20.5 5.5 19.8284 5.5 19V5ZM14.5 7V4.20711L17.7929 7.5H15C14.7239 7.5 14.5 7.27614 14.5 7Z" fill="#fff"/>
</svg>
